flaticon/gastronomy/pasta.svg

<svg xmlns="http://www.w3.org/2000/svg" width="32" height="32" viewBox="0 0 24 24">
    <path d="M 10.472656 15.378906 C 10.6875 15.074219 10.835938 14.71875 10.898438 14.332031 L 11.296875 12.886719 L 9.847656 13.285156 C 9.464844 13.347656 9.109375 13.496094 8.804688 13.707031 C 8.753906 13.296875 8.605469 12.898438 8.347656 12.542969 L 7.605469 11.238281 L 6.867188 12.542969 C 6.222656 13.429688 6.222656 14.613281 6.867188 15.5 L 7.445312 16.519531 L 7.664062 16.738281 L 8.683594 17.320312 C 9.128906 17.640625 9.644531 17.800781 10.164062 17.800781 C 10.679688 17.800781 11.195312 17.640625 11.640625 17.320312 L 12.945312 16.578125 L 11.640625 15.835938 C 11.285156 15.582031 10.886719 15.429688 10.472656 15.378906 Z M 9.992188 14.082031 L 10.140625 14.042969 L 10.101562 14.1875 C 9.992188 14.9375 9.414062 15.519531 8.664062 15.628906 L 8.515625 15.667969 L 8.554688 15.519531 C 8.664062 14.769531 9.242188 14.191406 9.992188 14.082031 Z M 7.527344 13.003906 L 7.605469 12.875 L 7.683594 13.003906 C 8.136719 13.613281 8.136719 14.429688 7.683594 15.039062 L 7.605469 15.171875 L 7.527344 15.039062 C 7.078125 14.433594 7.078125 13.613281 7.527344 13.003906 Z M 11.179688 16.65625 C 10.570312 17.105469 9.753906 17.105469 9.144531 16.65625 L 9.011719 16.578125 L 9.144531 16.5 C 9.753906 16.050781 10.570312 16.050781 11.179688 16.5 L 11.3125 16.578125 Z M 8.449219 12.269531 C 8.53125 12.347656 8.632812 12.386719 8.734375 12.386719 C 8.839844 12.386719 8.941406 12.347656 9.019531 12.269531 L 10.4375 10.851562 C 10.59375 10.695312 10.59375 10.441406 10.4375 10.28125 C 10.28125 10.125 10.023438 10.125 9.867188 10.28125 L 8.449219 11.699219 C 8.292969 11.855469 8.292969 12.109375 8.449219 12.269531 Z M 9.800781 12.628906 C 9.878906 12.710938 9.980469 12.75 10.085938 12.75 C 10.1875 12.75 10.292969 12.710938 10.371094 12.628906 L 12.140625 10.859375 C 12.296875 10.703125 12.296875 10.449219 12.140625 10.289062 C 11.984375 10.132812 11.726562 10.132812 11.570312 10.289062 L 9.800781 12.058594 C 9.644531 12.21875 9.644531 12.472656 9.800781 12.628906 Z M 13.421875 11.863281 L 11.648438 13.632812 C 11.492188 13.792969 11.492188 14.046875 11.648438 14.203125 C 11.730469 14.28125 11.832031 14.324219 11.933594 14.324219 C 12.039062 14.324219 12.140625 14.28125 12.21875 14.203125 L 13.992188 12.433594 C 14.148438 12.277344 14.148438 12.019531 13.992188 11.863281 C 13.832031 11.707031 13.578125 11.707031 13.421875 11.863281 Z M 11.675781 12.460938 C 11.753906 12.539062 11.859375 12.578125 11.960938 12.578125 C 12.0625 12.578125 12.167969 12.539062 12.246094 12.460938 L 13.839844 10.867188 C 13.996094 10.710938 13.996094 10.453125 13.839844 10.296875 C 13.679688 10.140625 13.425781 10.140625 13.269531 10.296875 L 11.675781 11.890625 C 11.519531 12.046875 11.519531 12.300781 11.675781 12.460938 Z M 13.289062 13.707031 L 11.875 15.121094 C 11.714844 15.28125 11.714844 15.535156 11.875 15.691406 C 11.953125 15.769531 12.054688 15.808594 12.160156 15.808594 C 12.261719 15.808594 12.367188 15.769531 12.445312 15.691406 L 13.859375 14.277344 C 14.019531 14.117188 14.019531 13.863281 13.859375 13.707031 C 13.703125 13.546875 13.449219 13.546875 13.289062 13.707031 Z M 3.363281 16.214844 L 3.933594 15.644531 L 4.503906 16.214844 L 3.933594 16.785156 Z M 4.21875 17.074219 L 4.789062 16.5 L 5.359375 17.070312 L 4.789062 17.644531 Z M 5.074219 17.925781 L 5.644531 17.355469 L 6.214844 17.925781 L 5.644531 18.496094 Z M 5.929688 18.785156 L 6.5 18.214844 L 7.070312 18.785156 L 6.5 19.355469 Z M 6.785156 19.640625 L 7.355469 19.070312 L 7.925781 19.640625 L 7.355469 20.210938 Z M 8.210938 21.066406 L 7.640625 20.496094 L 8.210938 19.925781 L 8.78125 20.496094 Z M 10.003906 5.976562 C 9.511719 6.964844 8.863281 7.859375 8.082031 8.640625 L 2.414062 14.308594 L 0.179688 15.328125 L 0.152344 15.550781 C 0.09375 16.050781 0.304688 16.613281 0.730469 17.09375 C 1.097656 17.507812 1.558594 17.78125 2 17.847656 C 2.042969 18.230469 2.199219 18.570312 2.457031 18.828125 C 2.710938 19.082031 3.050781 19.242188 3.429688 19.285156 C 3.472656 19.660156 3.628906 20 3.886719 20.257812 C 4.140625 20.511719 4.480469 20.671875 4.859375 20.714844 C 4.902344 21.089844 5.058594 21.429688 5.316406 21.6875 C 5.574219 21.945312 5.914062 22.101562 6.292969 22.144531 C 6.363281 22.582031 6.632812 23.042969 7.046875 23.414062 C 7.476562 23.792969 7.964844 24 8.421875 24 C 8.476562 24 8.535156 23.996094 8.589844 23.992188 L 8.816406 23.964844 L 9.824219 21.738281 L 15.503906 16.058594 C 16.285156 15.277344 17.179688 14.632812 18.167969 14.140625 L 19.402344 13.519531 L 10.621094 4.738281 Z M 10.84375 6.101562 L 18.039062 13.300781 L 17.804688 13.417969 C 16.742188 13.949219 15.773438 14.644531 14.929688 15.488281 L 9.351562 21.066406 L 9.066406 20.78125 L 8.496094 21.351562 L 8.921875 21.773438 L 8.285156 23.179688 C 8.0625 23.140625 7.808594 23.007812 7.585938 22.808594 C 7.28125 22.539062 7.082031 22.195312 7.085938 21.929688 C 7.085938 21.777344 7.023438 21.628906 6.914062 21.519531 C 6.804688 21.410156 6.65625 21.347656 6.503906 21.347656 C 6.503906 21.347656 6.5 21.347656 6.496094 21.347656 C 6.25 21.347656 6.035156 21.265625 5.886719 21.117188 C 5.734375 20.964844 5.652344 20.75 5.652344 20.5 C 5.65625 20.339844 5.59375 20.195312 5.488281 20.085938 C 5.378906 19.976562 5.234375 19.917969 5.074219 19.917969 C 5.074219 19.917969 5.070312 19.917969 5.066406 19.917969 C 4.820312 19.917969 4.609375 19.839844 4.457031 19.6875 C 4.304688 19.535156 4.222656 19.320312 4.222656 19.070312 C 4.226562 18.910156 4.164062 18.765625 4.058594 18.65625 C 3.949219 18.546875 3.804688 18.488281 3.644531 18.488281 C 3.386719 18.503906 3.179688 18.410156 3.027344 18.257812 C 2.875 18.105469 2.792969 17.890625 2.796875 17.640625 C 2.796875 17.492188 2.734375 17.339844 2.625 17.230469 C 2.515625 17.121094 2.371094 17.0625 2.210938 17.058594 C 1.949219 17.058594 1.601562 16.863281 1.332031 16.558594 C 1.132812 16.335938 1 16.082031 0.960938 15.859375 L 2.882812 14.984375 L 2.503906 15.359375 L 3.078125 15.929688 L 3.648438 15.359375 L 3.078125 14.789062 L 3.058594 14.804688 L 8.652344 9.210938 C 9.496094 8.371094 10.191406 7.402344 10.726562 6.335938 Z M 16.40625 0.464844 L 16.964844 1.042969 L 12.15625 5.710938 L 11.59375 5.132812 Z M 19.015625 12.546875 L 18.429688 11.992188 L 22.847656 7.335938 L 23.433594 7.890625 Z M 19.007812 0.570312 L 13.015625 6.5625 L 12.445312 5.992188 L 18.4375 0 Z M 20.71875 0.570312 L 13.871094 7.417969 L 13.300781 6.847656 L 20.148438 0 Z M 21.859375 1.140625 L 14.726562 8.273438 L 14.15625 7.703125 L 21.289062 0.570312 Z M 22.714844 1.996094 L 15.582031 9.128906 L 15.011719 8.558594 L 22.144531 1.425781 Z M 16.4375 9.984375 L 15.867188 9.414062 L 22.714844 2.566406 L 23.285156 3.140625 Z M 17.296875 10.84375 L 16.726562 10.273438 L 23.285156 3.710938 L 23.855469 4.28125 Z M 18.15625 11.695312 L 17.578125 11.132812 L 23.257812 5.3125 L 23.832031 5.875 Z M 18.15625 11.695312"/>
</svg>

<svg xmlns="http://www.w3.org/2000/svg" width="32" height="32" viewBox="0 0 24 24">
    <path d="M10.473 15.379c.214-.305.363-.66.425-1.047l.399-1.445-1.45.398c-.382.063-.738.211-1.042.422a2.49 2.49 0 0 0-.457-1.164l-.743-1.305-.738 1.305a2.503 2.503 0 0 0 0 2.957l.578 1.02.22.218 1.019.582c.445.32.96.48 1.48.48.516 0 1.031-.16 1.477-.48l1.304-.742-1.304-.742a2.53 2.53 0 0 0-1.168-.457zm-.48-1.297l.148-.039-.04.145a1.695 1.695 0 0 1-1.437 1.44l-.148.04.039-.148a1.69 1.69 0 0 1 1.437-1.438zm-2.466-1.078l.078-.129.079.129c.453.61.453 1.426 0 2.035l-.079.133-.078-.133a1.705 1.705 0 0 1 0-2.035zm3.653 3.652c-.61.45-1.426.45-2.035 0l-.133-.078.133-.078c.609-.45 1.425-.45 2.035 0l.133.078zM8.45 12.27a.412.412 0 0 0 .284.117c.106 0 .207-.04.286-.117l1.418-1.418a.406.406 0 0 0 0-.57.406.406 0 0 0-.57 0l-1.419 1.417a.406.406 0 0 0 0 .57zm1.35.359c.079.082.18.121.286.121.101 0 .207-.04.285-.121l1.77-1.77a.406.406 0 0 0 0-.57.406.406 0 0 0-.57 0L9.8 12.06a.406.406 0 0 0 0 .57zm3.622-.766l-1.774 1.77a.406.406 0 0 0 .286.691.403.403 0 0 0 .285-.12l1.773-1.77a.406.406 0 0 0 0-.57.406.406 0 0 0-.57 0zm-1.746.598a.405.405 0 0 0 .57 0l1.594-1.594a.406.406 0 0 0 0-.57.406.406 0 0 0-.57 0l-1.594 1.594a.406.406 0 0 0 0 .57zm1.613 1.246l-1.414 1.414a.399.399 0 0 0 0 .57.405.405 0 0 0 .57 0l1.414-1.414a.399.399 0 0 0 0-.57.399.399 0 0 0-.57 0zm-9.926 2.508l.57-.57.57.57-.57.57zm.856.86l.57-.575.57.57-.57.575zm.855.85l.57-.57.57.57-.57.571zm.856.86l.57-.57.57.57-.57.57zm.855.856l.57-.57.57.57-.57.57zm1.426 1.425l-.57-.57.57-.57.57.57zm1.793-15.09a10.183 10.183 0 0 1-1.922 2.665l-5.668 5.668-2.234 1.02-.028.222c-.058.5.153 1.062.578 1.543.368.414.829.687 1.27.754.043.382.2.722.457.98.254.254.594.414.973.457.043.375.199.715.457.973.254.254.593.414.972.457.043.375.2.715.457.973.258.257.598.414.977.457.07.437.34.898.754 1.27.43.378.918.585 1.375.585.055 0 .113-.004.168-.008l.226-.027 1.008-2.227 5.68-5.68a10.17 10.17 0 0 1 2.664-1.917l1.234-.621-8.78-8.782zm.84.126l7.195 7.199-.234.117a11.04 11.04 0 0 0-2.875 2.07l-5.578 5.578-.286-.285-.57.57.426.422-.637 1.407c-.223-.04-.476-.172-.7-.371-.304-.27-.503-.614-.5-.88a.583.583 0 0 0-.581-.581h-.008a.847.847 0 0 1-.61-.23.852.852 0 0 1-.234-.618.572.572 0 0 0-.164-.414.575.575 0 0 0-.414-.168h-.008a.837.837 0 0 1-.609-.23.852.852 0 0 1-.234-.618.572.572 0 0 0-.164-.414.575.575 0 0 0-.414-.168.78.78 0 0 1-.618-.23.834.834 0 0 1-.23-.617.59.59 0 0 0-.586-.582c-.262 0-.61-.196-.879-.5-.2-.223-.332-.477-.371-.7l1.922-.875-.38.375.575.57.57-.57-.57-.57-.02.016L8.653 9.21c.844-.84 1.54-1.809 2.075-2.875zM16.406.465l.559.578-4.809 4.668-.562-.578zm2.61 12.082l-.586-.555 4.418-4.656.586.555zM19.008.57l-5.992 5.992-.57-.57L18.437 0zm1.71 0l-6.847 6.848-.57-.57L20.148 0zm1.141.57l-7.132 7.133-.57-.57L21.288.57zm.856.856L15.582 9.13l-.57-.57 7.133-7.133zm-6.277 7.988l-.57-.57 6.847-6.848.57.575zm.859.86l-.57-.57 6.558-6.563.57.57zm.86.851l-.579-.562 5.68-5.82.574.562zm0 0"/>
</svg>
